archdroid-icon-theme/Archdroid-Brown/actions/scalable/zoom-out.svg

<?xml version="1.0" encoding="UTF-8" standalone="no"?>
<svg
   xmlns:dc="http://purl.org/dc/elements/1.1/"
   xmlns:cc="http://creativecommons.org/ns#"
   xmlns:rdf="http://www.w3.org/1999/02/22-rdf-syntax-ns#"
   xmlns:svg="http://www.w3.org/2000/svg"
   xmlns="http://www.w3.org/2000/svg"
   xmlns:sodipodi="http://sodipodi.sourceforge.net/DTD/sodipodi-0.dtd"
   xmlns:inkscape="http://www.inkscape.org/namespaces/inkscape"
   fill="#795548"
   width="48"
   height="48"
   viewBox="0 0 48 48"
   id="svg2"
   version="1.1"
   inkscape:version="0.91 r13725"
   sodipodi:docname="zoom-out.svg">
  <metadata
     id="metadata10">
    <rdf:RDF>
      <cc:Work
         rdf:about="">
        <dc:format>image/svg+xml</dc:format>
        <dc:type
           rdf:resource="http://purl.org/dc/dcmitype/StillImage" />
        <dc:title></dc:title>
      </cc:Work>
    </rdf:RDF>
  </metadata>
  <defs
     id="defs8" />
  <sodipodi:namedview
     pagecolor="#ffffff"
     bordercolor="#666666"
     borderopacity="1"
     objecttolerance="10"
     gridtolerance="10"
     guidetolerance="10"
     inkscape:pageopacity="0"
     inkscape:pageshadow="2"
     inkscape:window-width="1366"
     inkscape:window-height="713"
     id="namedview6"
     showgrid="false"
     inkscape:zoom="5.6145833"
     inkscape:cx="-15.228237"
     inkscape:cy="18.243213"
     inkscape:window-x="0"
     inkscape:window-y="30"
     inkscape:window-maximized="1"
     inkscape:current-layer="svg2"
     inkscape:snap-bbox="true"
     inkscape:bbox-paths="true"
     inkscape:bbox-nodes="true" />
  <path
     d="M 19 6 C 11.82 6 6 11.82 6 19 C 6 26.18 11.82 32 19 32 C 22.23 32 25.179219 30.819141 27.449219 28.869141 L 28 29.419922 L 28 31 L 38 40.980469 L 40.980469 38 L 31 28 L 29.410156 28 L 28.859375 27.449219 C 30.819375 25.179219 32 22.23 32 19 C 32 11.82 26.18 6 19 6 z M 19 10 C 23.97 10 28 14.03 28 19 C 28 23.97 23.97 28 19 28 C 14.03 28 10 23.97 10 19 C 10 14.03 14.03 10 19 10 z M 15 18 L 15 20 L 23 20 L 23 18 L 15 18 z "
     id="path4250" />
</svg>

<svg xmlns="http://www.w3.org/2000/svg" fill="#795548" viewBox="0 0 48 48"><path d="m19 6c-7.18 0-13 5.82-13 13 0 7.18 5.82 13 13 13 3.23 0 6.179-1.181 8.449-3.131l.551.551v1.58l10 9.98 2.98-2.98-9.98-10h-1.59l-.551-.551c1.96-2.27 3.141-5.219 3.141-8.449 0-7.18-5.82-13-13-13m0 4c4.97 0 9 4.03 9 9 0 4.97-4.03 9-9 9-4.97 0-9-4.03-9-9 0-4.97 4.03-9 9-9m-4 8v2h8v-2h-8"/></svg>
